pk/measuring-cup.svg

<svg viewBox="0 0 48 48" fill="none" xmlns="http://www.w3.org/2000/svg" height="1em" width="1em">
  <path d="M36 6H43.9996L42.0641 20H36" stroke="black" stroke-width="4" stroke-linecap="round" stroke-linejoin="round"/>
  <path d="M8.99939 6H35.9996V40C35.9996 41.1046 35.1042 42 33.9996 42H10.9993C9.89478 42 8.99936 41.1046 8.99932 40.0001L8.9986 16.4999C8.99857 15.5557 8.55544 14.672 7.8388 14.0572C5.14776 11.7488 -0.590926 6 8.99939 6Z" fill="#2F88FF" stroke="black" stroke-width="4" stroke-linecap="round" stroke-linejoin="round"/>
  <path d="M26 15H30" stroke="white" stroke-width="4" stroke-linecap="round" stroke-linejoin="round"/>
  <path d="M26 23H30" stroke="white" stroke-width="4" stroke-linecap="round" stroke-linejoin="round"/>
  <path d="M26 31H30" stroke="white" stroke-width="4" stroke-linecap="round" stroke-linejoin="round"/>
</svg>

<svg viewBox="0 0 48 48" fill="none" xmlns="http://www.w3.org/2000/svg" height="1em" width="1em">
  <path d="M36 6h8l-1.936 14H36" stroke="#000" stroke-width="4" stroke-linecap="round" stroke-linejoin="round"/>
  <path d="M9 6h27v34a2 2 0 0 1-2 2H11a2 2 0 0 1-2-2l-.001-23.5c0-.944-.444-1.828-1.16-2.443C5.148 11.75-.591 6 8.999 6Z" fill="#2F88FF" stroke="#000" stroke-width="4" stroke-linecap="round" stroke-linejoin="round"/>
  <path d="M26 15h4m-4 8h4m-4 8h4" stroke="#fff" stroke-width="4" stroke-linecap="round" stroke-linejoin="round"/>
</svg>
